images/rk.svg

<?xml version="1.0" encoding="UTF-8" standalone="no"?><!DOCTYPE svg PUBLIC "-//W3C//DTD SVG 1.1//EN" "http://www.w3.org/Graphics/SVG/1.1/DTD/svg11.dtd"><svg width="100%" height="100%" viewBox="0 0 57 57" version="1.1" xmlns="http://www.w3.org/2000/svg" xmlns:xlink="http://www.w3.org/1999/xlink" xml:space="preserve" xmlns:serif="http://www.serif.com/" style="fill-rule:evenodd;clip-rule:evenodd;"><circle id="cir_1" cx="28.5" cy="28.5" r="24.5" style="fill:#fafafa;"/><circle id="cir_2" cx="28.5" cy="28.5" r="22.05" style="fill:#fafafa;stroke:#f00;stroke-width:2px;"/><g><path d="M19.618,13.304c-0.119,0.119 -0.268,0.594 -0.327,1.054c-0.104,0.905 -0.786,2.849 -1.647,4.719l-0.534,1.157l-0.861,-0.104c-0.965,-0.104 -1.499,0.075 -1.499,0.52c0,0.163 0.178,0.638 0.416,1.068l0.4,0.787l-0.015,4.392c-0.014,3.458 -0.074,4.734 -0.296,6.085c-0.401,2.493 -0.371,3.754 0.089,4.66c0.4,0.786 0.92,1.276 1.35,1.276c0.356,0 0.876,-0.816 0.876,-1.38c0,-0.371 0.044,-0.401 0.564,-0.401c0.296,0 1.647,-0.134 2.997,-0.297c1.351,-0.163 2.746,-0.311 3.117,-0.326c0.578,-0.045 0.667,-0.089 0.712,-0.386c0.03,-0.208 -0.074,-0.49 -0.267,-0.698l-0.312,-0.341l0.46,-1.588c0.252,-0.875 0.623,-1.87 0.816,-2.226c0.208,-0.341 0.371,-0.757 0.371,-0.92c0,-0.475 -0.771,-1.068 -1.914,-1.469l-1.068,-0.371l-1.143,0.519c-1.054,0.475 -2.182,0.817 -3.398,1.039l-0.49,0.074l0,-2.166l2.493,-0.401c1.365,-0.208 2.716,-0.386 3.012,-0.386c0.282,0 0.653,-0.104 0.817,-0.222c0.267,-0.193 0.267,-0.223 0.029,-0.653c-0.237,-0.431 -0.237,-0.49 0.208,-1.796c0.238,-0.742 0.668,-1.692 0.95,-2.107c0.579,-0.861 0.623,-1.128 0.208,-1.648c-0.312,-0.385 -2.004,-1.142 -2.583,-1.142c-0.192,0 -0.712,0.163 -1.157,0.356c-0.876,0.386 -1.618,0.608 -2.686,0.816l-0.683,0.119l0.787,-0.98c0.445,-0.534 1.202,-1.543 1.692,-2.24c0.489,-0.698 1.127,-1.499 1.424,-1.766c0.297,-0.282 0.534,-0.668 0.534,-0.846c0,-0.431 -0.667,-1.084 -1.558,-1.484c-1.068,-0.475 -1.617,-0.564 -1.884,-0.297Zm2.656,9.319c-0.045,0.268 -0.134,0.861 -0.178,1.321c-0.06,0.46 -0.149,0.905 -0.208,1.009c-0.119,0.178 -2.048,0.742 -3.339,0.965l-0.579,0.104l0.104,-0.698c0.045,-0.385 0.089,-1.113 0.089,-1.632c0,-0.861 0.03,-0.95 0.342,-1.009c1.751,-0.356 2.656,-0.505 3.205,-0.52l0.638,-0.014l-0.074,0.474Zm-0.015,9.721c-0.178,2.374 -0.074,2.196 -1.395,2.463c-1.246,0.267 -3.042,0.564 -3.072,0.505c-0.015,-0.015 0.015,-0.802 0.045,-1.751l0.059,-1.722l0.772,-0.104c0.415,-0.044 1.261,-0.222 1.87,-0.371c1.899,-0.489 1.825,-0.534 1.721,0.98Z" style="fill:#f00;fill-rule:nonzero;"/><path d="M31.371,12.577c-0.208,0.252 -0.163,0.534 0.311,2.152c0.268,0.935 0.327,1.617 0.386,4.318l0.074,3.22l-1.276,0.178c-1.454,0.208 -1.632,0.208 -2.715,0.06c-0.921,-0.119 -1.232,0.059 -1.232,0.712c0,0.238 0.104,0.668 0.222,0.98c0.579,1.35 0.386,3.991 -0.4,5.772c-0.342,0.787 -0.297,1.44 0.207,2.597c0.386,0.92 0.921,1.366 1.336,1.143c0.772,-0.416 1.395,-2.953 1.543,-6.277c0.119,-3.043 0.045,-2.835 1.217,-3.087l0.995,-0.208l0.074,9.646c0.059,8.548 0.104,9.72 0.311,10.195c0.149,0.297 0.327,0.594 0.416,0.638c0.341,0.208 0.772,-0.104 1.143,-0.816c0.771,-1.543 1.083,-5.728 1.098,-14.558l0,-5.58l1.573,-0.104c1.024,-0.074 1.617,-0.059 1.721,0.045c0.223,0.223 0.089,6.975 -0.148,7.39c-0.149,0.297 -0.223,0.312 -0.876,0.163c-1.973,-0.415 -2.3,-0.059 -1.038,1.128c0.445,0.431 1.068,1.098 1.365,1.514c0.564,0.757 1.009,1.098 1.41,1.113c0.356,0 1.306,-0.846 1.691,-1.529c0.535,-0.934 0.683,-1.914 0.772,-5.208c0.074,-2.33 0.163,-3.161 0.371,-3.829c0.163,-0.475 0.282,-0.98 0.282,-1.128c0,-0.579 -2.196,-2.256 -2.953,-2.256c-0.134,0 -0.98,0.164 -1.87,0.371c-0.905,0.208 -1.781,0.371 -1.959,0.371l-0.341,0l0.015,-2.715c0,-1.484 0.059,-3.043 0.133,-3.443c0.371,-2.004 0.371,-2.078 -0.089,-2.404c-0.964,-0.698 -3.369,-1.054 -3.769,-0.564Z" style="fill:#f00;fill-rule:nonzero;"/></g></svg>

<?xml version="1.0" encoding="UTF-8" standalone="no"?>
<!DOCTYPE svg PUBLIC "-//W3C//DTD SVG 1.1//EN" "http://www.w3.org/Graphics/SVG/1.1/DTD/svg11.dtd">
<svg width="100%" height="100%" viewBox="0 0 57 57" version="1.1" xmlns="http://www.w3.org/2000/svg" xmlns:xlink="http://www.w3.org/1999/xlink" xml:space="preserve" xmlns:serif="http://www.serif.com/" style="fill-rule:evenodd;clip-rule:evenodd;">
    <g id="cir_1" transform="matrix(1.0198,0,0,1.03035,-0.0791987,-0.121408)">
        <circle cx="28.5" cy="28.5" r="24.5" style="fill:rgb(119,119,119);"/>
    </g>
    <circle id="cir_11" serif:id="cir_1" cx="28.5" cy="28.5" r="24.5" style="fill:rgb(250,250,250);"/>
    <circle id="cir_2" cx="28.5" cy="28.5" r="22.05" style="fill:rgb(250,250,250);stroke:rgb(255,0,0);stroke-width:2px;"/>
    <g>
        <path d="M19.618,13.304C19.499,13.423 19.35,13.898 19.291,14.358C19.187,15.263 18.505,17.207 17.644,19.077L17.11,20.234L16.249,20.13C15.284,20.026 14.75,20.205 14.75,20.65C14.75,20.813 14.928,21.288 15.166,21.718L15.566,22.505L15.551,26.897C15.537,30.355 15.477,31.631 15.255,32.982C14.854,35.475 14.884,36.736 15.344,37.642C15.744,38.428 16.264,38.918 16.694,38.918C17.05,38.918 17.57,38.102 17.57,37.538C17.57,37.167 17.614,37.137 18.134,37.137C18.43,37.137 19.781,37.003 21.131,36.84C22.482,36.677 23.877,36.529 24.248,36.514C24.826,36.469 24.915,36.425 24.96,36.128C24.99,35.92 24.886,35.638 24.693,35.43L24.381,35.089L24.841,33.501C25.093,32.626 25.464,31.631 25.657,31.275C25.865,30.934 26.028,30.518 26.028,30.355C26.028,29.88 25.257,29.287 24.114,28.886L23.046,28.515L21.903,29.034C20.849,29.509 19.721,29.851 18.505,30.073L18.015,30.147L18.015,27.981L20.508,27.58C21.873,27.372 23.224,27.194 23.52,27.194C23.802,27.194 24.173,27.09 24.337,26.972C24.604,26.779 24.604,26.749 24.366,26.319C24.129,25.888 24.129,25.829 24.574,24.523C24.812,23.781 25.242,22.831 25.524,22.416C26.103,21.555 26.147,21.288 25.732,20.768C25.42,20.383 23.728,19.626 23.149,19.626C22.957,19.626 22.437,19.789 21.992,19.982C21.116,20.368 20.374,20.59 19.306,20.798L18.623,20.917L19.41,19.937C19.855,19.403 20.612,18.394 21.102,17.697C21.591,16.999 22.229,16.198 22.526,15.931C22.823,15.649 23.06,15.263 23.06,15.085C23.06,14.654 22.393,14.001 21.502,13.601C20.434,13.126 19.885,13.037 19.618,13.304ZM22.274,22.623C22.229,22.891 22.14,23.484 22.096,23.944C22.036,24.404 21.947,24.849 21.888,24.953C21.769,25.131 19.84,25.695 18.549,25.918L17.97,26.022L18.074,25.324C18.119,24.939 18.163,24.211 18.163,23.692C18.163,22.831 18.193,22.742 18.505,22.683C20.256,22.327 21.161,22.178 21.71,22.163L22.348,22.149L22.274,22.623ZM22.259,32.344C22.081,34.718 22.185,34.54 20.864,34.807C19.618,35.074 17.822,35.371 17.792,35.312C17.777,35.297 17.807,34.51 17.837,33.561L17.896,31.839L18.668,31.735C19.083,31.691 19.929,31.513 20.538,31.364C22.437,30.875 22.363,30.83 22.259,32.344Z" style="fill:rgb(255,0,0);fill-rule:nonzero;"/>
        <path d="M31.371,12.577C31.163,12.829 31.208,13.111 31.682,14.729C31.95,15.664 32.009,16.346 32.068,19.047L32.142,22.267L30.866,22.445C29.412,22.653 29.234,22.653 28.151,22.505C27.23,22.386 26.919,22.564 26.919,23.217C26.919,23.455 27.023,23.885 27.141,24.197C27.72,25.547 27.527,28.188 26.741,29.969C26.399,30.756 26.444,31.409 26.948,32.566C27.334,33.486 27.869,33.932 28.284,33.709C29.056,33.293 29.679,30.756 29.827,27.432C29.946,24.389 29.872,24.597 31.044,24.345L32.039,24.137L32.113,33.783C32.172,42.331 32.217,43.503 32.424,43.978C32.573,44.275 32.751,44.572 32.84,44.616C33.181,44.824 33.612,44.512 33.983,43.8C34.754,42.257 35.066,38.072 35.081,29.242L35.081,23.662L36.654,23.558C37.678,23.484 38.271,23.499 38.375,23.603C38.598,23.826 38.464,30.578 38.227,30.993C38.078,31.29 38.004,31.305 37.351,31.156C35.378,30.741 35.051,31.097 36.313,32.284C36.758,32.715 37.381,33.382 37.678,33.798C38.242,34.555 38.687,34.896 39.088,34.911C39.444,34.911 40.394,34.065 40.779,33.382C41.314,32.448 41.462,31.468 41.551,28.174C41.625,25.844 41.714,25.013 41.922,24.345C42.085,23.87 42.204,23.365 42.204,23.217C42.204,22.638 40.008,20.961 39.251,20.961C39.117,20.961 38.271,21.125 37.381,21.332C36.476,21.54 35.6,21.703 35.422,21.703L35.081,21.703L35.096,18.988C35.096,17.504 35.155,15.945 35.229,15.545C35.6,13.541 35.6,13.467 35.14,13.141C34.176,12.443 31.771,12.087 31.371,12.577Z" style="fill:rgb(255,0,0);fill-rule:nonzero;"/>
    </g>
</svg>
